!!!COM: Beethoven, Ludwig van
!!!CDT: 1770///-1827///
!!!OTL: Piano Sonata no. 16 in G major
!!!OPS: 31
!!!ONM: 1
!!!OMV: 2
!!!OMD: Adagio grazioso
**kern	**kern	**dynam
*staff2	*staff1	*staff1/2
*Ipiano	*Ipiano	*Ipiano
*clefF4	*clefG2	*
*k[]	*k[]	*
*C:	*C:	*
*M9/8	*M9/8	*
*MM63	*MM63	*
=1-	=1-	=1-
*^	*	*
8E`L	4.C	2.ccTT	p
8G`	.	.	.
8c`J	.	.	.
8E`L	4r	.	.
8G`	.	.	.
8c`J	8rGG	.	.
.	.	(16bqLL	.
.	.	16ccqJJ)	.
8E`L	4r	[4ee	.
8G`	.	.	.
8c`J	8rGG	16.eeLL]	.
.	.	32ccJJk	.
=2	=2	=2	=2
8E`L	4C	[4.g	.
8G`	.	.	.
8c`J	8rGG	.	.
8E`L	4r	4g]	.
8G`	.	.	.
8c`J	8rGG	(16f#'LL	.
.	.	16g'JJ	.
8E`L	4r	16g#'LL	.
.	.	16a'	.
8G`	.	16b-'	.
.	.	16bn'	.
8c`J	8rGG	16cc'	.
.	.	16cc#'JJ)	.
=3	=3	=3	=3
8F`L	4.BB	2.ddTT	.
8G`	.	.	.
8dJ	.	.	.
8F`L	4r	.	.
8G`	.	.	.
8d`J	8rGG	.	.
.	.	(16cc#qLL	.
.	.	16ddqJJ)	.
8FL`	4r	[4ff	.
8G`	.	.	.
8d`J	8rGG	16.ffLL]	.
.	.	32ddJJk	.
=4	=4	=4	=4
8F`L	4BB	[4.g	.
8G`	.	.	.
8d`J	8rGG	.	.
8F`L	4r	4g]	.
8G`	.	.	.
8d`J	8rGG	(16g'LL	.
.	.	16a'JJ	.
8F`L	4GG	16b-'LL>	.
.	.	16bn'	.
8G`	.	16cc'	.
.	.	16cc#'	.
8B`J	8rGG	16dd'	.
.	.	16dd#'JJ)	.
*v	*v	*	*
=5	=5	=5
.	(8eq	.
8C` 8E`L	4.ee)	<
8G`	.	.
8c`J	.	.
.	(8fq	.
8AA`L	4.ff)	.
8A`	.	.
8c`J	.	.
.	(8gq	.
8EE`L	4.gg)	.
8E` 8G`	.	.
8G` 8c`J	.	[
=6	=6	=6
8FF`L	8gg#'	.
8F` 8A`	[4aa	sf
8A` 8c`J	.	.
8FF`L	8aa]	.
8F` 8A`	[4aa	sf
8A` 8c#`J	.	.
8FF`L	8aaL]	>
.	(8ggnq	.
8F` 8A`	(16ffL)	.
.	16ee	.
8A` 8d`J	16ff	.
.	16ddJJ)	]
=7	=7	=7
8GG`L	8ccL	p
.	(8ddq	.
8G` 8c`	()16.ccL	.
.	32bk	.
8c` 8e`J	16.cc	.
.	32eeJJk)	.
8GG`L	[4.g	.
8G` 8c`	.	.
8c` 8e`J	.	.
8GG`L	(32gLLL]	.
.	32a	.
.	32g	.
.	32f#JJJ	.
8G` 8d`	48gLLL>	.
.	48a	.
.	48b	.
.	48cc	.
.	48dd	.
.	48eeJJJ)	.
8d` 8fn`J	16ffnLL	.
.	32rdd	.
.	32bJJk	.
=8	=8	=8
8C`L	4.f/ (>(4.dd/	.
8G`	.	.
8B`J	.	.
8C` 8c`L	8e 8ccL))	.
(8G	(8g	.
8F#J	8f#J	.
8FnL	8fnL	.
8E	8e	.
8DJ)	8dJ)	.
=9	=9	=9
(8CCq	.	.
2.CTT)	8cL	.
.	8G 8c 8e	.
.	8G 8c 8eJ	.
.	8G 8c 8eL	.
.	8G 8c 8e	.
.	8G 8c 8eJ	.
(16BBqLL	.	.
16CqJJ	.	.
[4E)	8G 8c 8eL	.
.	8G 8c 8e	.
16.ELL]	8G 8c 8eJ	.
32CJJk	.	.
=10	=10	=10
*^	*	*
!	!	!LO:TX:i:a:t=leggieramente	!
8GG	8ryy	32r	.
.	.	32cLLL	.
.	.	32e	.
.	.	32dJJJ	.
8GL	[4G	32fLLL	.
.	.	32e	.
.	.	32g	.
.	.	32fJJJ	.
8c 8eJ	.	32aLLL	.
.	.	32g	.
.	.	32b	.
.	.	32aJJJ	.
8c 8eL	4.G_	32ccLLL	.
.	.	32b	.
.	.	32dd	.
.	.	32ccJJJ	.
8c 8e	.	(48eeLLL	.
.	.	48dd	.
.	.	48ff	.
.	.	48ee	.
.	.	48gg	.
.	.	48ffJJJ)	.
8c 8eJ	.	(48aaLLL	.
.	.	48gg	.
.	.	48bb	.
.	.	48aa	.
.	.	48ccc	.
.	.	48bbJJJ)	.
8c 8eL	4.G]	(48dddLLL	.
.	.	48ccc	.
.	.	48eee	.
.	.	48ddd	.
.	.	48ccc	.
.	.	48bbJJJ)	.
8c 8e	.	(48aaLLL	.
.	.	48gg	.
.	.	48ff	.
.	.	48ee	.
.	.	48dd	.
.	.	48ccJJJ)	.
8c 8eJ	.	(56bLLL	.
.	.	56a	.
.	.	56g	.
.	.	56f	.
.	.	56e	.
.	.	56d	.
.	.	56cJJJ)	.
*v	*v	*	*
=11	=11	=11
(8GGq	.	.
2.DTT)	8BL	.
.	8G 8B 8f	.
.	8G 8B 8fJ	.
.	8G 8B 8fL	.
.	8G 8B 8f	.
.	8G 8B 8fJ	.
(16C#qLL	.	.
16DqJJ	.	.
[4F)	8G 8B 8d 8fL	.
.	8G 8B 8d 8f	.
16.FLL]	8G 8B 8d 8fJ	.
32DJJk	.	.
=12	=12	=12
*^	*	*
!	!	!LO:TX:i:a:t=leggieramente	!
8GG	8ryy	32r	.
.	.	32BLLL	.
.	.	32d	.
.	.	32cJJJ	.
8GL	[4G	32eLLL	.
.	.	32d	.
.	.	32f	.
.	.	32eJJJ	.
8dJ	.	32gLLL	.
.	.	32f	.
.	.	32a	.
.	.	32gJJJ	.
8d 8fL	4.G_	32bLLL>	.
.	.	32a	.
.	.	32cc	.
.	.	32bJJJ	.
8d 8f	.	(48ddLLL	.
.	.	48cc	.
.	.	48ee	.
.	.	48dd	.
.	.	48ff	.
.	.	48eeJJJ)	.
8d 8fJ	.	(48ggLLL	.
.	.	48ff	.
.	.	48aa	.
.	.	48gg	.
.	.	48bb	.
.	.	48aaJJJ)	.
8d 8fL	4.G]	(48cccLLL	.
.	.	48bb	.
.	.	48ddd	.
.	.	48ccc	.
.	.	48eee	.
.	.	48dddJJJ)	.
8d 8f	.	64fffLLLL	.
.	.	64eee	.
.	.	64ddd	.
.	.	64ccc	.
.	.	64bb	.
.	.	64aa	.
.	.	64gg	.
.	.	64bbJJJJ	.
8d 8fJ	.	64dddLLLL	.
.	.	64ccc	.
.	.	64bb	.
.	.	64aa	.
.	.	64gg	.
.	.	64ff	.
.	.	64ee	.
.	.	64ddJJJJ	.
*v	*v	*	*
=13	=13	=13
8C`L	(8dd#	.
8G` 8c`	4ee)	.
8c` 8e`J	.	.
.	(8eeq	.
8AA`L	[4.ccc)	.
8A` 8c`	.	.
8c` 8e`J	.	.
8GG`L	16cccLL]	.
.	16bb'	.
8G` 8c`	16aa'	.
.	16gg'	.
8c` 8e`J	16ff#'	.
.	16ee'JJ	.
=14	=14	=14
8FF#`L	(8ee	.
8A` 8c`	[4ddn)	.
8c` 8d`J	.	.
8FF#`L	16ddLL]	.
.	16cc#'	.
8A` 8c`	16dd'	.
.	16cc#'	.
8c` 8d`J	16dd'	.
.	16cc#'JJ	.
8GG`L	16dd'LL	.
.	16cc#'	.
8G` 8B`	16dd'	.
.	16ee'	.
8B` 8d`J	16ff#'	.
.	16gg'JJ	.
=15	=15	=15
8CC`L<	16a'LL	.
.	16g#'	.
8C` 8E`	16a'	.
.	16b'JJ	.
8E` 8A`J	24cc'LL	.
.	24dd'	.
.	24ee'JJ	.
8DD`L<	(8ee^	.
8D` 8G`	[4d)	.
8G` 8B`J	.	.
8DD`L	(16dLL]	.
.	32eL	.
.	32dJ	.
8D` 8A`	16c#	.
.	16d)	.
8A` 8c`J	16e'	.
.	16f#'JJ	.
=16	=16	=16
.	(8f#q	.
8GG`L	()4.a	.
8G` 8c`	.	.
8c` 8d`J	.	.
8G` 8B`	8gL)	.
8r	(8g'	pp
8r	8g'J)	.
4r	(8gL	.
.	8f#	.
8r	8gJ)	.
*clefG2	*	*
=17	=17	=17
*	*^	*
!	!LO:TX:i:t=cresc.	!	!
4r	2.ryy	8gL	<
.	.	8f#	.
8e-	.	8gJ	.
(8e-L	.	(8gL	.
8d	.	8f#	.
8e-J)	.	8gJ)	.
(8e-L	4ryy	(<8gL	.
8d	.	8f#	.
8e-J)	8b- 8cc#	8gJ)	.
=18	=18	=18	=18
*^	*	*	*
(8enL	2.A	[4.b- [4.cc#	(8gL	sf >
8d#	.	.	8f#	.
8eJ)	.	.	8gJ)	.
(8eL	.	4b-] 4cc#]	(8gL	.
8d#	.	.	8f#	.
8eJ)	.	8b- 8cc#	8gJ)	.
(8eL	4.A	(8b- 8cc#L	(8gL	.
8fn	.	8dd	8a	.
8c#J)	.	8eeJ)	8aJ)	]
*v	*v	*	*	*
*clefF4	*	*	*
=19	=19	=19	=19
*^	*	*	*
(4.c#	[4.D	(4.ee	[4.a	.
8d)	8D]	8ffnL)	8a]	.
8r	8r	(8f'	4ryy	pp
8r	8r	8f'J)	.	.
4r	4r	(8fL	4ryy	.
.	.	8e	.	.
8r	8r	8fJ)	8ryy	.
*v	*v	*	*	*
*clefG2	*	*	*
=20	=20	=20	=20
!	!LO:TX:i:t=cresc.	!	!
4r	2.ryy	(8fL	.
.	.	8e	.
8d-	.	8fJ)	.
(8d-L	.	(8fL	.
8c	.	8e	.
8d-J)	.	8fJ)	.
(8d-L	4ryy	(<8fL	.
8c	.	8e	.
8d-J)	8a- 8bn	8fJ)	.
=21	=21	=21	=21
*^	*	*	*
(8dnL	2.G	[4.a- [4.b	(8fL	sf >
8c#	.	.	8e	.
8dJ)	.	.	8fJ)	.
(8dL	.	4a-] 4b]	(8fL	.
8c#	.	.	8e	.
8dJ)	.	8a- 8b	8fJ)	.
(8dL	4.G	8a- (8bL	(8fL	.
8e	.	8cc	8g	.
8BJ)	.	8ddJ)	8gJ)	]
*v	*v	*	*	*
*clefF4	*	*	*
=22	=22	=22	=22
(4.c	(4.ee	8gL	p
.	.	(8g	.
.	.	8g#J)	.
4.F	4.dd	8r	.
.	.	(8g#L	.
.	.	8aJ)	.
4.F#)	4.cc	8r	.
.	.	(8aL	.
.	.	8dJ)	.
=23	=23	=23	=23
*^	*	*	*
8GGL	[2.GG	4b)	4d	.
8G	.	.	.	.
8GJ	.	8re	8rdd	.
8GL	.	8r	4g	<
8G	.	(8aL	.	.
8GJ	.	8bJ	8f	[
8GL	4.GG]	4cc	8eL	>
8G	.	.	8d	.
8GJ	.	8f#	8cJ	]
=24	=24	=24	=24	=24
8GGL	[2.GG	8aL	4B	.
8G	.	8gJ)	.	.
8GJ	.	8re	8rdd	.
8GL	.	(8bL	4g	<
8G	.	8a	.	.
8GJ	.	8btJ	8fn	[
8GL	4.GG]	8ddL	8eL	>
8G	.	8cc	8d	.
8GJ	.	8f#J)	8cJ	]
=25	=25	=25	=25	=25
*	*^	*	*	*
(<8GG	8ryy	4.GG	8g	8B	.
[4G	16GLL	.	16re	16rff	.
.	16BB	.	(16ddLL	(16fLL	.
.	16C	.	16cc	16e	.
.	16E-JJ)	.	16f#JJ)	16cJJ)	.
8D 8G]	8ryy	(4.GG	8g	8B	.
[4G	16GLL	.	16re	16rdd	.
.	16BB	.	(16ddLL	(16fnLL	.
.	16C	.	16cc	16e	.
.	16AAJJ)	.	16f#JJ)	16cJJ)	.
8G]	8ryy	(4.GG	8g	8B	.
4G	16GLL	.	16re	16rdd	.
.	16BB	.	(16ddLL	(16fnLL	.
.	16C	.	16cc	16e	.
.	16E-XJJ)	.	16f#JJ)	16cJJ)	.
*	*v	*v	*	*	*
*v	*v	*	*	*
*	*v	*v	*
=26	=26	=26
2.GG;< 2.D 2.G	2.Bt; [2.g;	p
*	*cue	*
4r	32gLLL<]	.
.	32f#	.
.	32g	.
.	32d	.
.	32e	.
.	32f#	.
.	32g	.
.	32a	.
8r	32b	.
.	32a	.
.	32g	.
.	32a	.
8ryy	32b	.
.	32cc	.
!	!LO:TX:i:t=cresc.	!
.	32dd	<
.	32cc	.
4ryy	32b	.
.	32cc	.
.	32dd	.
.	32ee	.
.	32ff#	.
.	32gg	.
.	32ff#	.
.	32ee	.
8ryy	32dd	.
.	32ee	.
.	32ff#	.
.	32gg	.
32ryy	32aaJJJ	.
4ryy	32bbLLL<	.
.	32aa	.
.	32gg	.
.	32aa	.
.	32bb	.
.	32ccc	.
.	32ddd	.
.	32eee	.
8ryy	32fffn	.
.	32eee	.
.	32ddd	.
.	32ccc#JJJ	.
4ryy	32eeeLLL<	.
.	32ddd	.
.	32cccn	.
.	32bb	.
.	32aa	.
.	32ccc	.
.	32bb	.
.	32ddd	.
8ryy	32ccc	.
.	32bb	.
.	32aa	.
.	32gg	.
32ryy	32gg#JJJ	.
!	!LO:TX:i:t=dim.	!
2.ryy	(8bb'LL<	>
.	8aa'	.
.	8ggn'	.
.	8ffn'	.
.	8ee'	.
.	8dd'JJ)	.
*	*Xcue	*
=27	=27	=27
*^	*	*
8E`L	4.C	2.ccTT	p
8G`	.	.	.
8c`J	.	.	.
8E`L	4r	.	.
8G`	.	.	.
8cJ	8rGG	.	.
.	.	(16bqLL	.
.	.	16ccqJJ	.
8E`L	4r	[4ee)	.
8G`	.	.	.
8c`J	8rGG	16.eeLL]	.
.	.	32ccJJk	.
=28	=28	=28	=28
8E`L	4.C	[4.g	.
8G`	.	.	.
8cJ	.	.	.
8E`L	4r	4g]	.
8G`	.	.	.
8c`J	8rGG	(16f#'LL	.
.	.	16g'JJ	.
8E`L	4r	16g#'LL	.
.	.	16a'	.
8G`	.	16b-'	.
.	.	16bn'	.
8c`J	8rGG	16cc'	.
.	.	16cc#'JJ)	.
=29	=29	=29	=29
8F`L	4.BB	2.ddTT	.
8G`	.	.	.
8d`J	.	.	.
8F`L	4r	.	.
8G`	.	.	.
8d`J	8rGG	.	.
.	.	(16cc#qLL	.
.	.	16ddqJJ)	.
8F`L	4r	[4gg	.
8G`	.	.	.
8dJ	8rGG	(32.ggLLL]	.
.	.	64ffL	.
.	.	64ee	.
.	.	64dd	.
.	.	64ccn	.
.	.	64bJJJJ)	.
=30	=30	=30	=30
8F`L	4.BB	8a'	.
8G`	.	[4g	.
8dJ	.	.	.
8F`L	4r	4g]	.
8G`	.	.	.
8dJ	8rGG	(16g'LL	<
.	.	16a'JJ	.
8F`L	4.GG	16b-'LL>	.
.	.	16bn'	.
8G`	.	16cc'	.
.	.	16cc#'	.
8BJ	.	16dd'	.
.	.	16dd#'JJ)	[
*v	*v	*	*
=31	=31	=31
8C` 8E`L	(40eeLLL	.
.	40ff	.
.	40ee	.
.	40dd#	.
.	40eeJJ)	.
8G`	8ccc'J	.
8c`J	8r	.
8AA`L	(40ffLLL	.
.	40gg	.
.	40ff	.
.	40ee	.
.	40ffJJ)	.
8A`	8ccc'J	.
8c`J	8r	.
8EEL	(40ggLLL	.
.	40aa	.
.	40gg	.
.	40ff#	.
.	40ggJJ)	.
8E` 8G`	8ccc'J	.
8G` 8c`J	8r	.
=32	=32	=32
!	!LO:TX:i:t=cresc.	!
8FF'L	8gg#'	<
8F` 8A`	[4aa	.
8A` 8c`J	.	.
8FF`L	8aa]	.
8F` 8A`	[4aa	sf
8A` 8c#`J	.	.
8FF`L	8aaL]	.
.	(8ggnq	.
8F` 8A`	16ffL)	>
.	16ee	.
8A` 8d`J	16ff	.
.	16ddJJ	]
=33	=33	=33
8GG`L	(32ccLLL	.
.	32dd	.
.	32cc	.
!	!LO:TX:i:t=cresc.	!
.	32bJ)	<
8G` 8c`	16cc'	.
.	16dd'	.
8c` 8e`J	16ee'	.
.	16ff'JJ	.
8GG`L	16gg'LL	.
.	16aa'	.
8G` 8c`	16bb'	.
.	16ccc'	.
8c` 8e`J	16ddd'	.
.	16eee'JJ	.
.	(16dddqLL	.
.	16eeeqJJ)	.
8GG`L	8fff'	sf
8G` 8d`	8r	.
8d 8fJ	8b'	p
=34	=34	=34
8C`L	(>(4.f/ 4.dd/	.
8G`	.	.
8B`J	.	.
8C` 8c`L	8e) 8ccL)	.
(8G	(>8g	.
8E-J	8e-J	.
*	*clefF4	*
8CL	8cL	.
8GG	8G	.
8EE-J)	8E-J	.
=35	=35	=35
(16CCLL	4C)	pp
16EE-	.	.
16GG)	.	.
16GG'	.	.
16GG'	8r	.
16GG'JJ	.	.
(16CCLL	4r	.
16EE-	.	.
16GG)	.	.
16GG'	.	.
16GG'	8r	.
16GG'JJ	.	.
(16CCLL	4r	.
16EE-	.	.
16GG)	.	.
16GG'	.	.
16GG'	8r	.
16GG'JJ	.	.
*	*clefG2	*
=36	=36	=36
(16CCLL	4.e- (>4.ee-	pp
16EE-	.	.
16AA-)	.	.
16AA-	.	.
16AA-'	.	.
16AA-'JJ	.	.
(16CCLL	4.c 4.cc	.
16EE-	.	.
16AA-)	.	.
16AA-'	.	.
16AA-'	.	.
16AA-'JJ	.	.
(16CCLL	4.A- 4.a-	.
16EE-	.	.
16AA-)	.	.
16AA-'	.	.
16AA-'	.	.
16AA-'JJ	.	.
=37	=37	=37
(16DD-LL	[2.F [2.f)	.
16FF	.	.
16AA-)	.	.
16AA-'	.	.
16AA-'	.	.
16AA-'JJ	.	.
(16DD-LL	.	.
16FF	.	.
16AA-)	.	.
16AA-'	.	.
16AA-'	.	.
16AA-'JJ	.	.
(16DD-LL	4F] 4f]	.
16FF	.	.
16AAn)	.	.
16AA'	.	.
16AA'	(16fLL	.
16AA'JJ	16ffJJ)	.
=38	=38	=38
!	!LO:TX:i:t=cresc.	!
(16DD-LL	[4f/ [4ff/	<
16FF	.	.
16BB-)	.	.
16BB-'	.	.
16BB-'	16f] 16ffLL>]	.
16BB-'JJ	16e- 16ee-JJ	.
(16DD-LL	(8e- 8ee-L	.
16FF	.	.
16BB-)	8.d- 8.dd-	.
16BB-'	.	.
16BB-'	.	.
16BB-'JJ	16c) 16ccJk	.
(16DDnLL	(8c 8ccL	.
16FF	.	.
16BB-)	8.B- 8.b-	.
16BB-'	.	.
16BB-'	.	.
16BB-'JJ	16A-) 16a-Jk	.
=39	=39	=39
(16EE-LL	4.G (>4.g	f
16BB-	.	.
16D-)	.	.
16D-'	.	.
16D-'	.	.
16D-'JJ	.	.
(16EEnLL	4.d- 4.g 4.dd-	.
16BB-	.	.
16En)	.	.
16E'	.	.
16E'	.	.
16E'JJ	.	.
(16FFLL>	4.c 4.a- 4.cc	.
16AA-	.	.
16F)	.	.
16F'	.	.
16F'	.	.
16F'JJ	.	.
=40	=40	=40
(16DD-LL>	4.B- 4.d- 4.b-	>
!	!LO:TX:i:t=dim.	!
16D-	.	.
16F)	.	.
16F'	.	.
16F'	.	.
16F'JJ	.	.
(16EE-LL	4.A- 4.c 4.a-	.
16C	.	.
16E-)	.	.
16E-'	.	.
16E-'	.	.
16E-'JJ	.	.
(16EE-LL	4.G 4.B-X 4.d- 4.e-)	.
16BB-	.	.
16D-X)	.	.
16D-'	.	.
16D-'	.	.
16D-'JJ	.	.
=41	=41	=41
16AAA- 16AA-LL	16A- 16c 16e-LL	fp
16A-'	16c' 16e-'	.
16A-'	16c' 16e-'	.
16A-'	16c' 16e-'	.
16A-'	16c' 16e-'	.
16A-'JJ	16c' 16e-'JJ	.
16A-'LL	16c' 16e-'LL	.
16A-'	16c' 16e-'	.
16A-'	16c' 16e-'	.
16A-'	16c' 16e-'	.
16A-'	16c' 16e-'	.
16A-'JJ	16c' 16e-'JJ	.
16A-'LL	16c' 16e-'LL	.
16A-'	16c' 16e-'	.
16A-'	16c' 16e-'	.
16A-'	16c' 16e-'	.
16A-'	16c' 16e-'	.
16A-'JJ	16c' 16e-'JJ	.
=42	=42	=42
.	(32cccqLLL	.
.	32ddd-qJJJ	.
16A-' 16c' 16e-'LL	16eee-'LL)	.
16A-' 16c' 16e-'	16ddd-'	.
16A-' 16c' 16e-'	16ccc'	.
16A-' 16c' 16e-'	16bb-'	.
16A-' 16c' 16e-'	16aa-'	.
16A-' 16c' 16e-'JJ	16gg'JJ	.
16A-' 16c' 16e-'LL	16ff'LL	.
16A-' 16c' 16e-'	16ee-'	.
16A-' 16c' 16e-'	16dd-'	.
16A-' 16c' 16e-'	16cc'	.
16A-' 16c' 16e-'	16b-'	.
16A-' 16c' 16e-'JJ	16a-'JJ	.
16A-' 16c' 16e-'LL	16g'LL	.
16A-' 16c' 16e-'	16a-'	.
16A-' 16c' 16e-'	16b-'	.
16A-' 16c' 16e-'	16a-'	.
16A-' 16c' 16e-'	16cc'	.
16A-' 16c' 16e-'JJ	16a-'JJ	.
=43	=43	=43
16B-' 16d-' 16e-'	16g'LL	fp
16r	16B-' 16d-' 16e-'	.
8r	16B-' 16d-' 16e-'	.
.	16B-' 16d-' 16e-'	.
8r	16B-' 16d-' 16e-'	.
.	16B-' 16d-' 16e-'JJ	.
4r	16B-' 16d-' 16e-'LL	.
.	16B-' 16d-' 16e-'	.
.	16B-' 16d-' 16e-'	.
.	16B-' 16d-' 16e-'	.
8r	16B-' 16d-' 16e-'	.
.	16B-' 16d-' 16e-'JJ	.
4r	16B-' 16d-' 16e-'LL	.
.	16B-' 16d-' 16e-'	.
.	16B-' 16d-' 16e-'	.
.	16B-' 16d-' 16e-'	.
8r	16B-' 16d-' 16e-'	.
.	16B-' 16d-' 16e-'JJ	.
=44	=44	=44
(16GqLL	.	.
16A-qJJ	.	.
16B-'LL)	16d-' 16e-'LL	.
16A-'	16d-' 16e-'	.
16G'	16d-' 16e-'	.
16F'	16d-' 16e-'	.
16E-'	16d-' 16e-'	.
16D-'JJ	16d-' 16e-'JJ	.
16C'LL	16d-' 16e-'LL	.
16BB-'	16d-' 16e-'	.
16AA-'	16d-' 16e-'	.
16GG'	16d-' 16e-'	.
16FF'	16d-' 16e-'	.
16EE-'JJ	16d-' 16e-'JJ	.
16DDn'LL	16B-' 16d-' 16e-'LL	.
16EE-'	16B-' 16d-' 16e-'	.
16FF'	16B-' 16d-' 16e-'	.
16EE-'	16B-' 16d-' 16e-'	.
16GG'	16B-' 16d-' 16e-'	.
16EE-'JJ	16B-' 16d-' 16e-'JJ	.
=45	=45	=45
16AAA-' 16AA-'LL	16c' 16e-'LL	fp
16A-'	16c' 16e-'	.
16A-'	16c' 16e-'	.
16A-'	16c' 16e-'	.
16A-'	16c' 16e-'	.
16A-'JJ	16c' 16e-'JJ	.
16A-'LL	16c' 16e-'LL	.
16A-'	16c' 16e-'	.
16A-'	16c' 16e-'	.
16A-'	16c' 16e-'	.
16A-'	16c' 16e-'	.
16A-'JJ	16c' 16e-'JJ	.
16A-'LL	16c' 16en'LL	.
16A-'	16c' 16e'	.
16A-'	16c' 16e'	.
16A-'	16c 16e	.
!!!ONB: hand bracket
16A-'	16c' 16e'	.
16A-'JJ	16c' 16e'JJ	.
=46	=46	=46
.	(32aa-qLLL	.
.	32bb-qJJJ)	.
16F' 16A-' 16c' 16f'LL	16ccc'LL	.
16F' 16A-' 16c'	16bb-'	.
16F' 16A-' 16c'	16aa-'	.
16F' 16A-' 16c'	16gg'	.
16F' 16A-' 16c'	16ff'	.
16F' 16A-' 16c'JJ	16ee-'JJ	.
16F' 16A-' 16c'LL	16dd-'LL<	.
16F' 16A-' 16c'	16cc'	.
16F' 16A-' 16c'	16b-'	.
16F' 16A-' 16c'	16a-'	.
16F' 16A-' 16c'	16g'	.
16F' 16A-' 16c'JJ	16f'JJ	.
16F' 16A-' 16c'LL	16en'LL	.
16F' 16A-' 16c'	16f'	.
16F' 16A-' 16c'	16g'	.
16F' 16A-' 16c'	16f'	.
16F' 16A-' 16c'	16a-'	.
16F' 16A-' 16c'JJ	16f'JJ	.
=47	=47	=47
16G' 16B-' 16c'	16en'LL	fp
16r	16G' 16B-' 16c'	.
8r	16G' 16B-' 16c'	.
.	16G' 16B-' 16c'	.
8r	16G' 16B-' 16c'	.
.	16G' 16B-' 16c'JJ	.
4r	16G' 16B-' 16c'LL	.
.	16G' 16B-' 16c'	.
.	16G' 16B-' 16c'	.
.	16G' 16B-' 16c'	.
8r	16G' 16B-' 16c'	.
.	16G' 16B-' 16c'JJ	.
4r	16G' 16B-' 16c'LL	.
.	16G' 16B-' 16c'	.
.	16G' 16B-' 16c'	.
.	16G' 16B-' 16c'	.
8r	16G' 16B-' 16c'	.
.	16G' 16B-' 16c'JJ	.
=48	=48	=48
(32EnqLLL	.	.
32FqJJJ	.	.
16G'LL)	16B-' 16c'LL	.
16F'	16B-' 16c'	.
16E'	16B-' 16c'	.
16D-'	16B-' 16c'	.
16C'	16B-' 16c'	.
16BB-'JJ	16B-' 16c'JJ	.
16AA-'LL	16B-' 16c'LL	.
16GG'	16B-' 16c'	.
16FF'	16B-' 16c'	.
16EE'	16B-' 16c'	.
16DD-'	16B-' 16c'	.
16CC'JJ	16B-' 16c'JJ	.
16BBBn'LL	16G' 16B-' 16c'LL	.
16CC'	16G' 16B-' 16c'	.
16DD-'	16G' 16B-' 16c'	.
16CC'	16G' 16B-' 16c'	.
16EE'	16G' 16B-' 16c'	.
16CC'JJ	16G' 16B-' 16c'JJ	.
=49	=49	=49
*^	*	*
2.ryy	16FF' 16F'LL	16A-' 16c'LL	fp
.	16F'	16A-' 16d-'	.
.	16F'	16A-' 16d-'	.
.	16F'	16A-' 16d-'	.
.	16F'	16A-' 16d-'	.
.	16F'JJ	16A-' 16d-'JJ	.
.	16F' 16A-' 16d-'LL	(16aa-LL	.
.	16F' 16A-' 16d-'	16ff	.
.	16F' 16A-' 16d-'	16dd-)	.
.	16F' 16A-' 16d-'	16dd-'	.
.	16F' 16A-' 16d-'	16dd-'	.
.	16F' 16A-' 16d-'JJ	16dd-'JJ	.
16G' 16c'LL	16E-LL	4.ryy	.
16G' 16c'	16E-	.	.
16G' 16c'	16E-	.	.
16G' 16c'	16E-	.	.
16G' 16c'	16E-	.	.
16G' 16c'JJ	16E-JJ	.	.
=50	=50	=50	=50
16F' 16Bn'LL	16DDn' 16Dn'LL	4.ryy	fp
16F' 16B'	16D'	.	.
16F' 16B'	16D'	.	.
16F' 16B'	16D'	.	.
16F' 16B'	16D'	.	.
16F' 16B'JJ	16D'JJ	.	.
4.ryy	16D' 16F' 16B'LL	(16ffLL	.
.	16D' 16F' 16B'	16dd	.
.	16D' 16F' 16B'	16b)	.
.	16D' 16F' 16B'	16b'	.
.	16D' 16F' 16B'	16b'	.
.	16D' 16F' 16B'JJ	16b'JJ	.
16E-' 16A-'LL	16C'LL	4.ryy	.
16E-' 16A-'	16C'	.	.
16E-' 16A-'	16C'	.	.
16E-' 16A-'	16C'	.	.
16E-' 16A-'	16C'	.	.
16E-' 16A-'JJ	16C'JJ	.	.
=51	=51	=51	=51
16D' 16G'LL	16BBB' 16BB'LL	4.ryy	fp
16D' 16G'	16BB'	.	.
16D' 16G'	16BB'	.	.
16D' 16G'	16BB'	.	.
16D' 16G'	16BB'	.	.
16D' 16G'JJ	16BB'JJ	.	.
2.ryy	16BB' 16D' 16G'LL	(16dddLL	.
.	16BB' 16D' 16G'	16bb	.
.	16BB' 16D' 16G'	16ff)	.
.	16BB' 16D' 16G'	16ff'	.
.	16BB' 16D' 16G'	16ff'	.
.	16BB' 16D' 16G'JJ	16ff'JJ	.
.	16C' 16E-' 16G'LL	(16cccLL	.
.	16C' 16E-' 16G'	16gg	.
.	16C' 16E-' 16G'	16ee-)	.
.	16C' 16E-' 16G'	16ee-'	.
.	16C' 16E-' 16G'	16ee-'	.
.	16C' 16E-' 16G'JJ	16ee-'JJ	.
*v	*v	*	*
=52	=52	=52
16FF'LL	(16aa-LL	.
16F' 16A-' 16d-'	16ff)	.
!	!LO:TX:i:a:t=cresc.	!
16F' 16A-' 16d-'	16f' 16a-' 16dd-'	<
16F' 16A-' 16d-'	16f' 16a-' 16dd-'	.
16F' 16A-' 16d-'	16f' 16a-' 16dd-'	.
16F' 16A-' 16d-'JJ	16f' 16a-' 16dd-'JJ	.
16FF'LL	(16aa-LL	.
16F' 16A-' 16d-'	16ff)	.
16F' 16A-' 16d-'	16f' 16a-' 16dd-'	.
16F' 16A-' 16d-'	16f' 16a-' 16dd-'	.
16F' 16A-' 16d-'	16f' 16a-' 16dd-'	.
16F' 16A-' 16d-'JJ	16f' 16a-' 16dd-'JJ	.
16FF#'LL	(16aanLL	.
16F#' 16An' 16c'	16ee-)	.
16F#' 16A' 16c'	16e-' 16an' 16cc'	.
16F#' 16A' 16c'	16e-' 16a' 16cc'	.
16F#' 16A' 16c'	16e-' 16a' 16cc'	.
16F#' 16A' 16c'JJ	16e-' 16a' 16cc'JJ	.
=53	=53	=53
*	*^	*
16GG'LL	4d 4g 4b	4.ryy	f
16BB'	.	.	.
16D'	.	.	.
16G'	.	.	.
16B'	8r	.	.
16d'JJ	.	.	.
*clefG2	*	*	*
(8gL	[4.ff	8r	.
8f#	.	(8ddL	.
8gJ	.	8bJ	.
4a-	8ff]	4cc	.
.	4ee-	.	.
8f#)	.	8an	.
*clefF4	*	*	*
=54	=54	=54	=54
16GG'LL	4dd	4b)	.
16BB'	.	.	.
16D'	.	.	.
16G'	.	.	.
16B'	8r	8r	.
16d'JJ	.	.	.
*clefG2	*	*	*
(8gL	[4.ff	8r	.
8f#	.	(8ddL	.
8gJ	.	8bJ	.
4a-	8ff]	4cc	.
.	(4ee-	.	.
[8f#)	.	[8an)	.
=55	=55	=55	=55
*^	*	*	*
4f#]	4.G	4.dd	8aL]	.
.	.	.	8b	.
[<8fn	.	.	[8a-J	.
4f]	4.G	4.dd-	8a-L]	.
.	.	.	8b-	.
[<8e	.	.	[8gJ	.
4e]	4.G	4.cc	8gL]	.
.	.	.	8an	.
8e-	.	.	[8f#J	.
*v	*v	*	*	*
=56	=56	=56	=56
4G 4d	4bn)	(8f#L]	.
.	.	8a-	.
8r	8r	8fnJ)	>
*clefF4	*	*	*
4G 4d	8r	8r	.
!	!LO:TX:i:t=dim.	!	!
.	4b	(8gL	.
8r	.	8fJ)	.
4G 4c	8r	8r	.
.	4cc	(8gL	.
8r	.	8e-J)	.
=57	=57	=57	=57
4GG 4G	8r	8r	pp
.	4e- 4f#	(8cL	.
8r	.	8AJ)	.
*	*v	*v	*
*	*clefF4	*
*	*^	*
4GGG 4GG	8r	8r	.
.	4c	(8F# 8AL	.
8r	.	8E-J)	.
4GGG 4GG	8r	8r	.
.	4F#	(8E- 8CL	.
8r	.	8AAJ)	.
*	*v	*v	*
=58	=58	=58
*^	*	*
8GGL	4GGG	4BB 4D 4G	.
8GG	.	.	.
8GGJ	8rAAA	8r	.
8GGL	4r	8r	.
8GG	.	16r	.
.	.	16BB' 16G'LL	.
8GGJ	8rAAA	16C' 16A'	.
.	.	16D' 16B'JJ	.
8GGL	4r	4.E-z (4.cz	.
8GG	.	.	.
8GGJ	8FFF#	.	.
=59	=59	=59	=59
8GGL	4GGG	4.D 4.B)	.
8GG	.	.	.
8GGJ	8rAAA	.	.
8GGL	4r	8r	.
8GG	.	16r	.
.	.	16G' 16B'LL	.
8GGJ	8rAAA	16A' 16c'	.
.	.	16B' 16d'JJ	.
8GGL	4r	4.cz (4.e-z	.
8GG	.	.	.
8GGJ	(8FFF#	.	.
=60	=60	=60	=60
8GGL	4GGG)	4B 4d)	.
8GG	.	.	.
8GGJ	8rAAA	8r	.
*	*	*clefG2	*
8GGL	4r	8r	.
8GG	.	16r	.
.	.	16B' 16g'LL	.
8GGJ	8rAAA	16c' 16a'	.
.	.	16d' 16b'JJ	.
4rF	8GGL	4.e- (>4.cc	sf
.	8GG	.	.
(8F#	8GGJ	.	.
=61	=61	=61	=61
*	*	*^	*
4G)	8GGL	4.d 4.b)	4.ryy	.
.	8G	.	.	.
8ryy	8GJ	.	.	.
2.ryy	8GL	4.ccz> (4.ee-z>	4r	.
.	8G	.	.	.
.	8GJ	.	(8f#	.
.	8GL	4.b 4.dd	4.g)	.
.	8G	.	.	.
.	8GJ	.	.	.
*v	*v	*	*	*
=62	=62	=62	=62
8GL	4.cc 4.ee	4r	.
8G	.	.	.
8GJ	.	(8f#	.
8GL	4.b 4.dd)	4.g)	.
8G	.	.	.
8GJ	.	.	.
8GL	4.ccz> 4.eez> (4.aaz>	4r	.
8G	.	.	.
8GJ	.	(8f#	.
=63	=63	=63	=63
8GL	4.b 4.dd 4.gg	4g)	.
8G	.	.	.
8GJ	.	8r	.
!	!	!LO:TX:i:t=dim.	!
8G	4.cc 4.ffn	4.a	>
8GGL	.	.	.
8GGJ	.	.	.
8GGL	4.ryy	4.g 4.b 4.een	.
8GG	.	.	.
8GGJ	.	.	.
=64	=64	=64	=64
*^	*	*	*
!	!	!LO:TX:i:t=cresc.	!	!
8GGL	[4.GG	4.f 4.a 4.dd	2.ryy	.
16AAL	.	.	.	.
16BB	.	.	.	.
16C	.	.	.	.
16DJJ	.	.	.	.
16E'LL	4GG]	4.e 4.g 4.cc)	.	.
16F'	.	.	.	.
16G'	.	.	.	.
16A'	.	.	.	.
16B'	8r	.	.	.
16c'JJ	.	.	.	.
4.ryy	4.G	16f' 16b'LL	16d'LL	.
.	.	16g' 16cc#'	16e'	.
.	.	16a' 16dd'	16f'	.
.	.	16g' 16ee'	16c#'	.
.	.	16f' 16ff'	16d'	.
.	.	16f' 16b'JJ	16d'JJ	.
*v	*v	*	*	*
=65	=65	=65	=65
16C` 16E`LL	2.ccTT	8e	p
16E` 16G`	.	.	.
16G` 16c`	.	4ryy	.
16E` 16G`	.	.	.
16C` 16E`	.	.	.
16E` 16G`JJ	.	.	.
16C` 16E`LL	.	4.ryy	.
16E` 16G`	.	.	.
16G` 16c`	.	.	.
16E` 16G`	.	.	.
16C` 16E`	.	.	.
16E` 16G`JJ	.	.	.
.	.	(32bqLLL	.
.	.	32ccqJJJ	.
16C` 16E`LL	[4ee)	4.ryy	.
16E` 16G`	.	.	.
16G` 16c`	.	.	.
16E` 16G`	.	.	.
16C` 16E`	16.eeLL]	.	.
16E` 16G`JJ	.	.	.
.	32ccJJk	.	.
*	*v	*v	*
=66	=66	=66
16C` 16E`LL	[4.g	.
16E` 16G`	.	.
16G` 16c`	.	.
16E` 16G`	.	.
16C` 16E`	.	.
16E` 16G`JJ	.	.
16C` 16E`LL	4g]	.
16E` 16G`	.	.
16G` 16c`	.	.
16E` 16G`	.	.
16C` 16E`	(16f#'LL	.
16E` 16G`JJ	16g'JJ	.
16C` 16E`LL	16g#'LL	.
16E` 16G`	16a'	.
16G` 16c`	16b-'	.
16E` 16G`	16bn'	.
16C` 16E`	16cc'	.
16E` 16G`JJ	16cc#'JJ)	.
=67	=67	=67
16BB` 16F`LL	2.ddTT	.
16F` 16G`	.	.
16G` 16d`	.	.
16F` 16G`	.	.
16BB` 16F`	.	.
16F` 16G`JJ	.	.
16BB` 16F`LL	.	.
16F` 16G`	.	.
16G` 16d`	.	.
16F` 16G`	.	.
16BB` 16F`	.	.
16F` 16G`JJ	.	.
.	(32cc#qLL	.
.	32ddqJJ	.
16BB` 16F`LL	[4ff)	.
16F` 16G`	.	.
16G` 16d`	.	.
16F` 16G`	.	.
16BB` 16F`	16.ffLL]	.
16F` 16G`JJ	.	.
.	32ddJJk	.
=68	=68	=68
16BB` 16F`LL	[4.g	.
16F` 16G`	.	.
16G` 16d`	.	.
16F` 16G`	.	.
16BB` 16F`	.	.
16F` 16G`JJ	.	.
16BB` 16F`LL	4g]	.
16F` 16G`	.	.
16G` 16d`	.	.
16F` 16G`	.	.
16BB` 16F`	(16g'LL	<
16F` 16G`JJ	16a'JJ	.
16GG` 16F`LL	16b-'LL>	.
16F` 16G`	16bn'	.
16G` 16B`	16cc'	.
16F` 16G`	16cc#'	.
16GG` 16F`	16dd'	.
16F` 16G`JJ	16dd#JJ)	[
=69	=69	=69
.	(8eq	.
16C`LL	4.ee)	.
16G`	.	.
16c`	.	.
16G`	.	.
16E`	.	.
16C`JJ	.	.
.	(8fq	.
16AA`LL	4.ff)	.
16A`	.	.
16c`	.	.
16A`	.	.
16F`	.	.
16CJJ	.	.
.	(8gq	.
16EE`LL	4.gg)	.
16G`	.	.
16c`	.	.
16G`	.	.
16E`	.	.
16C`JJ	.	.
=70	=70	=70
!	!LO:TX:i:t=cresc.	!
16FF`LL	8gg#'	<
16F` 16A`	.	.
16A` 16c`	[4aa	.
16F` 16A`	.	.
16A' 16c'	.	.
16F` 16A`JJ	.	.
16FF`LL	8aa]	.
16F` 16A`	.	.
16A` 16c#`	[4aa'z	.
16F` 16A`	.	.
16A` 16c#`	.	.
16F` 16A`JJ	.	.
16FF`LL	8aaL]	.
16F` 16A`	.	.
.	(8ggnq	.
16A` 16d`	(16ffL)	.
16F` 16A`	16ee	.
16A` 16d`	16ff	.
16F` 16A`JJ	16ddJJ)	.
=71	=71	=71
16GG`LL	8cc'L	.
16G` 16c`	.	.
.	(8ddq	.
16c` 16e`	(16.ccL)	.
16G` 16c`	.	.
.	32bk	.
16c` 16e`	16.cc	.
16G` 16c`JJ	.	.
.	32eeJJk	.
16GG`LL	[4.g)	.
16G` 16c`	.	.
16c` 16e`	.	.
16G` 16c`	.	.
16c` 16e`	.	.
16G` 16c`JJ	.	.
16GG`LL	(32gLLL]	.
.	32a	.
16G` 16d`	32g	.
.	32f#JJJ	.
16d` 16f`	48gLLL	.
.	48a	.
.	48bJJJ	.
16G` 16d`	48ccLLL	.
.	48dd	.
.	48eeJJJ)	.
16d` 16f`	16ffn'LL	.
16G` 16d`JJ	32r	.
.	32bJJk	.
=72	=72	=72
16C`LL	4.f (>4.dd	.
16G`	.	.
16B`	.	.
16G`	.	.
16B`	.	.
16GJJ	.	.
16C` 16c`LL	16e 16ccLL)	.
(16G	(16g	.
16F#	16f#	.
16G	16g	.
16A	16a	.
16GJJ	16gJJ	.
16FnLL	16fnLL	.
16E	16e	.
16G	16g	.
16F	16f	.
16E	16e	.
16DJJ)	16dJJ)	.
=73	=73	=73
(8CCq	.	.
2.CTT)	16c`LL	.
.	16G` 16c`	.
.	16c` 16e`	.
.	16G` 16c`	.
.	16c` 16e`	.
.	16G` 16c`JJ	.
.	16c` 16e`LL	.
.	16G` 16c`	.
.	16c` 16e`	.
.	16G` 16c`	.
.	16c` 16e`	.
.	16G` 16c`JJ	.
(16BBqLL	.	.
16CqJJ)	.	.
[4E	16c` 16e`LL	.
.	16G` 16c`	.
.	16c` 16e`	.
.	16G` 16c`	.
16.ELL]	16c` 16e`	.
.	16G` 16c`JJ	.
32CJJk	.	.
=74	=74	=74
!	!LO:TX:i:a:t=leggieramente	!
16GGLL	32r	.
.	32bLLL	.
16G` 16c`	32dd	.
.	32ccJJJ	.
16c` 16e`	32eeLLL	.
.	32dd	.
16G` 16c`	32ff	.
.	32eeJJJ	.
16c` 16e`	32ggLLL	.
.	32ff	.
16G` 16c`JJ	32aa	.
.	32ggJJJ	.
16c` 16e`LL	32bbLLL	.
.	32aa	.
16G` 16c`	32ccc	.
.	32bbJJJ	.
16c` 16e`	32dddLLL	.
.	32ccc	.
16G` 16c`	32eee	.
.	32dddJJJ	.
16c` 16e`	32cccLLL	.
.	32bb	.
16G` 16c`JJ	32aa	.
.	32ggJJJ	.
16c` 16e`LL	32ff#LLL	.
.	32gg	.
16G` 16c`	32aa	.
.	32ggJJJ	.
16c` 16e`	32ffnLLL	.
.	32ee	.
16G` 16c`	32dd	.
.	32ccJJJ	.
16c` 16e`	32bLLL	.
.	32cc	.
16G` 16c`JJ	32ee	.
.	32ccJJJ	.
=75	=75	=75
(8AAq	.	.
!	!LO:TX:i:a:t=staccato	!
2.DTT)	16bLL	.
.	16G 16B	.
.	16B 16f	.
.	16G 16B	.
.	16B 16f	.
.	16G 16BJJ	.
.	16B 16fLL	.
.	16G 16B	.
.	16B 16f	.
.	16G 16B	.
.	16B 16f	.
.	16G 16BJJ	.
(32C#qLL	.	.
32DqJJ)	.	.
[4F	16B 16fLL	.
.	16G 16B	.
.	16B 16f	.
.	16G 16B	.
16.FLL]	16B 16f	.
.	16G 16BJJ	.
32DJJk	.	.
=76	=76	=76
!LO:TX:i:t=staccato	!LO:TX:i:a:t=leggieramente	!
16GG'yLL	32r	.
.	32bLLL	.
16G'y 16d'y	32dd	.
.	32ccJJJ	.
16d'y 16f'y	32eeLLL	.
.	32dd	.
16G'y 16d'y	32ff	.
.	32eeJJJ	.
16d'y 16f'y	32ggLLL	.
.	32ff	.
16G'y 16d'yJJ	32aa	.
.	32ggJJJ	.
16d'y 16f'yLL	32bbLLL	.
.	32aa	.
16G'y 16d'y	32ccc	.
.	32bbJJJ	.
16d'y 16f'y	32dddLLL	.
.	32ccc#	.
16G'y 16d'y	32eee	.
.	32dddJJJ	.
16d'y 16f'y	32fffLLL	.
.	32eee	.
16G'y 16d'yJJ	32ddd	.
.	32cccnJJJ	.
16d'y 16f'yLL	32bbLLL	.
.	32ccc	.
16G'y 16d'y	32ccc#	.
.	32dddJJJ	.
16d'y 16f'y	32cccnLLL	.
.	32bb	.
16G'y 16d'y	32aa	.
.	32ggJJJ	.
16d'y 16f'y	32ff#LLL	.
.	32gg	.
16G'y 16d'yJJ	32aa	.
.	32ffnJJJ	.
=77	=77	=77
16CLL	8dd#	.
16G 16c	.	.
16c 16e	4ee	.
16G 16c	.	.
16c 16e	.	.
16G 16cJJ	.	.
.	(8eeq	.
16AALL	[4.ccc)	sf
16A 16c	.	.
16c 16e	.	.
16A 16c	.	.
16c 16e	.	.
16A 16cJJ	.	.
16GGLL	16ccc'LL]	.
16G 16c	16bb'	.
16c 16e	16aa'	.
16G 16c	16gg'	.
16c 16e	16ff#'	.
16G 16cJJ	16ee'JJ	.
=78	=78	=78
!	!LO:TX:i:t=cresc.	!
16FF#LL	8ee'	<
16A 16c	.	.
16c 16d	[4dd	.
16A 16c	.	.
16c 16d	.	.
16A 16cJJ	.	.
16FF#LL	16ddLK]	.
16A 16c	8dd	.
16c 16d	.	.
16A 16c	8dd	.
16c 16d	.	.
16A 16cJJ	16ddJk	.
16GGLL	24dd'LL	.
.	24cc#'	.
16G 16B	.	.
.	24dd'JJ	.
16B 16d	24ee-'LL	.
.	24een'	.
16G 16B	.	.
.	24ffn'JJ	.
16B 16d	16ff#'LL	.
16G 16BJJ	16gg'JJ	.
=79	=79	=79
16CCLL<	24a'LL<	.
.	24g#'	.
16C 16E	.	.
.	24a'JJ	.
16E 16A	32b-'LLL	.
.	32bn'	.
16C 16E	32cc	.
.	32cc#'JJJ	.
16E 16A	24dd'LL	.
.	24dd#'	.
16C 16EJJ	.	.
.	24ee'JJ	.
16DDLL	(8ee	>
16D 16G	.	]
16G 16B	[4dn)	.
16D 16G	.	.
16G 16B	.	.
16D 16GJJ	.	.
16DDLL	16dLL]	.
16D 16A	(48eL	.
.	48d	.
.	48c#JJJ	.
16A 16c	48dLLL	.
.	48e	.
.	48f#JJJ	.
16D 16A	48g#LLL	.
.	48a	.
.	48bJJJ	.
16A 16c	16ccn'LL)	.
16D 16AJJ	32r	.
.	32f#XJJk	.
=80	=80	=80
16GGLL	4.c (>(4.a	.
16D	.	.
16F#	.	.
16D	.	.
16F#	.	.
16DJJ	.	.
8GG\ 8G\	8B 8gL))	.
8r	(8g'	pp
8r	8g'J)	.
4r	(8gL	.
.	8f#	.
8r	8gJ)	.
=81	=81	=81
*	*^	*
4r	(8gL	2.ryy	.
.	8f#	.	.
*clefG2	*	*	*
8e-	16g'L	.	pp
.	16g'JJ)	.	.
(8e-L	16r	.	.
.	16gLL	.	<
8d	16r	.	.
!	!LO:TX:i:t=cresc.	!	!
.	16f#	.	.
8e-J)	16r	.	.
.	16gJJ	.	.
(8e-L	4ryy	16r	.
.	.	16gLL	.
8d	.	16r	.
.	.	16f#	.
8e-J)	16r	16r	.
.	16b- 16cc#	16gJJ	.
=82	=82	=82	=82
*^	*	*	*
(8enL	2.A	[4.b-' [4.cc#'	16r	sf >
.	.	.	16gLL	.
8d#	.	.	16re	.
.	.	.	16f#	.
8eJ)	.	.	16re	.
.	.	.	16gJJ	.
(8eL	.	4b-_ 4cc#_	16re	.
.	.	.	16gLL	.
8d#	.	.	16re	.
.	.	.	16f#	.
8eJ)	.	16b-] 16cc#LL]	16r	.
.	.	16b- 16cc#JJ	16gJJ	]
(8eL	4.A	16r	16r	.
.	.	16b- 16cc#	16g	.
8fn	.	16r	16r	.
.	.	16dd	16a	.
8c#J)	.	16r	16r	.
.	.	16ee	16a	.
*v	*v	*	*	*
*clefF4	*	*	*
*	*v	*v	*
=83	=83	=83
[4.D (4.c#	[4.a (4.ee	p
8D] 8d)	8a] 8ffL)	.
8r	(8f'	pp
8r	8f'J)	.
4r	(8fL	.
.	8e	.
8r	8fJ)	.
*clefG2	*	*
=84	=84	=84
*	*^	*
!	!LO:TX:i:t=cresc.	!	!
4r	(8fL	2.ryy	<
.	8e	.	.
8d-	16f'L	.	pp
.	16f'JJ)	.	.
(8d-L	16r	.	.
.	16fLL	.	.
8c	16r	.	.
.	16e	.	.
8d-J)	16r	.	.
.	16fJJ	.	.
(8d-L	4ryy	16r	.
.	.	16fLL	.
8c	.	16re	.
.	.	16e	.
8d-J)	16ryy	16re	.
.	16a- 16b	16fJJ	.
=85	=85	=85	=85
*^	*	*	*
(8dnL	2.G	[4.a- [4.b	16r	sf >
.	.	.	[16fLL	.
8c#	.	.	16r	.
.	.	.	16e	.
8dJ)	.	.	16r	.
.	.	.	16fJJ]	.
(8dL	.	4a-_ 4b_	16r	.
.	.	.	[16fLL	.
8c#	.	.	16r	.
.	.	.	16e	.
8dJ)	.	16a-] 16bLL]	16r	.
.	.	16a- 16bJJ	16fJJ	.
(8dL	4.G	16r	16r	]
.	.	16a- 16b	16f	.
8e	.	16r	16r	.
.	.	16cc	16g	.
8BJ)	.	16r	16r	.
.	.	16dd	16g	.
*v	*v	*	*	*
*clefF4	*	*	*
=86	=86	=86	=86
(4.c	(4.ee	(>16gLL	p
.	.	16f#)	.
.	.	(>16f#	.
.	.	16g)	.
.	.	(>16g	.
.	.	16g#JJ)	.
4.F	4.dd	16r	.
.	.	16g#LL	.
.	.	(>16g#	.
.	.	16a)	.
.	.	(>16b	.
.	.	16aJJ)	.
4.F#)	4.cc	16r	.
.	.	16aLL	.
.	.	(>16a	.
.	.	16d)	.
.	.	(>16a	.
.	.	16dJJ)	.
=87	=87	=87	=87
*^	*	*	*
8GGL	[2.GG	4b)	16dLK	.
.	.	.	8g	.
8G	.	.	.	.
.	.	.	8g	.
8GJ	.	8rff	.	.
.	.	.	[16gJk	.
8GL	.	8rff	16gLK]	.
.	.	.	8g	.
8G	.	(8aL	.	<
.	.	.	8g	.
8GJ	.	8bJ	.	.
.	.	.	[16fnJk	.
8GL	4.GG]	4cc	16fLK]	.
.	.	.	8e	[
8G	.	.	.	.
.	.	.	8d	>
8GJ	.	8f#	.	.
.	.	.	16cJk	.
=88	=88	=88	=88	=88
8GG	[2.GG	8aL	16BLL	.
.	.	.	16d	.
8GL	.	16gJk)	16BJ	]
.	.	16r	8g	.
8GJ	.	8r	.	.
.	.	.	[16gJk	.
8GL	.	(8bL	16gLK]	<
.	.	.	8g	.
8G	.	8a	.	.
.	.	.	8g	.
8GJ	.	8bJ	.	[
.	.	.	[16fnJk	.
8GL	4.GG]	8ddL	16fLK]	>
.	.	.	8e	.
8G	.	8cc	.	.
.	.	.	8d	.
8GJ	.	8f#J	.	]
.	.	.	16cJk	.
=89	=89	=89	=89	=89
16GGLL	8ryy	8g)	8BL	.
[16GJJ	.	.	.	.
4G]	16rBB	16rff	8fn	.
.	(16BBLL	(16ddLL	.	.
.	16C	16cc	16eL	.
.	16E-JJ)	16f#JJ)	16cJJ	.
*	*^	*	*	*
16GGLL	8D	4GG\	8g	8BL	.
[16GJJ	.	.	.	.	.
4G]	16r	.	16rff	8fn	.
.	(16BBLL	.	(16ddLL	.	.
.	16C	8ryy	16cc	16eL	.
.	16AAJJ)	.	16f#JJ)	16cJJ	.
16GGLL	8ryy	4.GG	8g	8BL	.
[16GJJ	.	.	.	.	.
4G]	16r	.	16rff	8fn	.
.	(16BBLL	.	(16ddLL	.	.
.	16C	.	16cc	16eL	.
.	16EXJJ)	.	16f#JJ)	16cJJ	.
*	*v	*v	*	*	*
*v	*v	*	*	*
*	*v	*v	*
=90	=90	=90
2.GG; 2.D; 2.G;	2.Bt; [2.g;	p
*	*cue	*
!LO:N:vis=4	!	!
16.r;	32gLLL<]	.
.	32f#	.
.	32g	.
8r;	32d	.
.	32e	.
.	32f#	.
.	32g	.
32ryy	32a	.
8ryy	32g	.
.	32f#	.
.	32g	.
.	32a	.
4ryy	32b	.
.	32cc	.
.	32b	.
.	32a	.
.	32b	.
.	32cc	.
.	32dd	.
.	32ee	.
8ryy	32dd	.
.	32cc#	.
.	32dd	.
.	32ee	.
32ryy	32ff#JJJ	.
=-	=-	=-
2ryy	32ggLLL<	.
.	32aa	.
.	32gg	.
.	32ff#X	.
.	32gg	.
.	32aa	.
.	32bb	.
.	32ccc	.
.	32bb	.
.	32aa	.
.	32bb	.
.	32ccc	.
.	32ddd	.
.	32ccc	.
.	32bb	.
.	32aaJJJ	.
=-	=-	=-
2ryy	32ggLLL<	.
.	32aa	.
.	32gg	.
.	32ff#X	.
.	32gg	.
.	32aa	.
.	32bb	.
.	32ccc	.
.	32bb	.
.	32aa	.
.	32bb	.
.	32ccc	.
.	32ddd	.
.	32ccc	.
.	32bb	.
.	32aaJJJ	.
=-	=-	=-
2ryy	32ggLLL<	.
.	32aa	.
.	32gg	.
.	32ff#X	.
.	32gg	.
.	32aa	.
.	32bb	.
.	32ccc	.
.	32bb	.
.	32aa	.
.	32bb	.
.	32ccc	.
.	32ddd	.
.	32eee	.
.	32ddd	.
.	32ccc#	.
8ryy	32ddd	.
.	32eee	.
.	32fffn	.
.	32eee	.
16ryy	32ddd	.
.	32cccnJJJ	.
=-	=-	=-
2ryy	32bbLLL<	.
.	32ccc	.
.	32bb	.
.	32aa	.
.	32bb	.
.	32ccc	.
.	32ddd	.
.	32eee	.
.	32ddd	.
.	32ccc#	.
.	32ddd	.
.	32eee	.
.	32fff	.
.	32eee	.
.	32ddd	.
.	32cccnJJJ	.
=-	=-	=-
2ryy	32bbLLL<	>
.	32ccc	.
.	32ccc#	.
.	32ddd	] p
.	32ff	>
.	32gg	.
.	32gg#	.
.	32aa	]
.	32dd	>
.	32ee-	.
.	32een	.
.	32ff	]
.	32b	>
.	32ccn	.
.	32cc#	.
.	32ddJJJ	]
=-	=-	=-
4ryy	32gnLLL<	.
.	32g#	.
.	32a	.
.	32a#	.
!	!LO:TX:i:t=cresc.	!
.	32b	.
.	32ccn	.
.	32cc#	.
.	32dd	.
8ryy	32dd#	.
.	32ee	.
.	32ff	.
.	32ff#	.
16ryy	32gg	.
.	32gg#JJJ	.
=-	=-	=-
2.ryy	(8bb'L<	.
!	!LO:TX:i:t=dim.	!
.	8aa'	.
.	8ggn'	.
.	8ffn'	.
.	8ee'	.
.	8dd'J)	.
*clefF4	*	*
=91	=91	=91
*	*Xcue	*
16C` 16E`LL	2.ccTT	p
16E` 16G`	.	.
16G` 16c`	.	.
16E` 16G`	.	.
16C` 16E`	.	.
16E` 16G`JJ	.	.
16C` 16E`LL	.	.
16E` 16G`	.	.
16G` 16c`	.	.
16E` 16G`	.	.
16C` 16E`	.	.
16E` 16G`JJ	.	.
.	(16bqLLL	.
.	16ccqJJJ)	.
16C` 16E`LL	[4ee	.
16E` 16G`	.	.
16G` 16c`	.	.
16E` 16G`	.	.
16C` 16E`	16.eeLL]	.
16E` 16G`JJ	.	.
.	32ccJJk	.
=92	=92	=92
16C` 16E`LL	[4.g	.
16E` 16G`	.	.
16G` 16c`	.	.
16E` 16G`	.	.
16C` 16E`	.	.
16E` 16G`JJ	.	.
16C` 16E`LL	4g]	.
16E` 16G`	.	.
16G` 16c`	.	.
16E` 16G`	.	.
16C` 16E`	(16f#'LL	.
16E` 16G`JJ	16g'JJ	.
16C` 16E`LL	16g#'LL	.
16E` 16G`	16a'	.
16G` 16c`	16b-'	.
16E` 16G`	16bn'	.
16C` 16E`	16cc'	.
16E` 16G`JJ	16cc#'JJ)	.
=93	=93	=93
16BB` 16F`LL	2.ddTT	.
16F` 16G`	.	.
16G` 16d`	.	.
16F` 16G`	.	.
16BB` 16F`	.	.
16F` 16G`JJ	.	.
16BB` 16F`LL	.	.
16F` 16G`	.	.
16G` 16d`	.	.
16F` 16G`	.	.
16BB` 16F`	.	.
16F` 16G`JJ	.	.
.	(32cc#qLLL	.
.	32ddqJJJ	.
16BB` 16F`LL	[4gg)	.
16F` 16G`	.	.
16G` 16d`	.	.
16F` 16G`	.	.
16BB` 16F`	(32.ggLLL]	.
.	64ffL	.
16F` 16G`JJ	64ee	.
.	64dd	.
.	64ccn	.
.	64bJJJJ)	.
=94	=94	=94
16BB` 16F`LL	8a	.
16F` 16G`	.	.
16G` 16d`	[4g	.
16F` 16G`	.	.
16BB` 16F`	.	.
16F` 16G`JJ	.	.
16BB` 16F`LL	4g]	.
16F` 16G`	.	.
16G` 16d`	.	.
16F` 16G`	.	.
16BB` 16F`	(16g'LL	.
16F` 16G`JJ	16a'JJ	.
16GG` 16F`LL	16b-'LL>	.
16F` 16G`	16bn'	.
16G` 16B`	16cc'	.
16F` 16G`	16cc#'	.
16GG` 16F`	16dd'	.
16F` 16G`JJ	16dd#'JJ)	.
=95	=95	=95
!!!ONB: Change rscale to 1/2 for three beam lines
*	*rscale:1	*
16C` 16E`LL	(88%3eeLLL	.
.	88%3ff	.
16G`	.	.
.	88%3ee	.
.	88%3dd#	.
16c`	.	.
.	88%3ee	.
.	88%3cc	.
16G`	.	.
.	88%3b	.
.	88%3cc	.
16E`	.	.
.	88%3ccc	.
.	88%3bb	.
16C`JJ	.	.
.	88%3cccJJJ)	.
16AA`LL	(88%3ffLLL	.
.	88%3gg	.
16A`	.	.
.	88%3ff	.
.	88%3ee	.
16c`	.	.
.	88%3ff	.
.	88%3cc	.
16A`	.	.
.	88%3b	.
.	88%3cc	.
16F`	.	.
.	88%3ccc	.
.	88%3bb	.
16C`JJ	.	.
.	88%3cccJJJ)	.
16EE`LL	(88%3ggLLL	.
.	88%3aa	.
16G`	.	.
.	88%3gg	.
.	88%3ff#	.
16c`	.	.
.	88%3gg	.
.	88%3cc	.
16G`	.	.
.	88%3b	.
.	88%3cc	.
16E`	.	.
.	88%3ccc	.
.	88%3bb	.
16C`JJ	.	.
.	88%3cccJJJ)	.
*	*rscale:1	*
=96	=96	=96
!	!LO:TX:i:t=cresc.	!
16FF`LL	16gg#'LK	<
16F` 16A`	8aa	.
16A` 16c`	.	.
16F` 16A`	8aa	.
16A` 16c`	.	.
16F` 16A`JJ	8aa	.
16FF`LL	.	.
16F` 16A`	8aa	f
16A` 16c#`	.	.
16F` 16A`	8aa	.
16A` 16c#`	.	.
16F` 16A`JJ	[16aaJk	.
!	!LO:TX:i:t=dim.	!
16FF`LL	(16aaLL]	.
16F` 16A`	16ee	.
.	(8ggnq	.
16A` 16d`	16ff)	.
16F` 16A`	16ee	.
16A 16d	16ff	.
16F` 16A`JJ	16ddJJ)	.
=97	=97	=97
16GG`LL	(32ccLLL	p
.	32dd	.
16G` 16c`	32cc	.
.	32bJJJ)	.
16c` 16e`	32r	.
.	32ccLLL	.
16G` 16c`	32r	.
.	32dd	.
16c` 16e`	32r	.
.	32ee	.
!	!LO:TX:i:t=cresc.	!
16G` 16c`JJ	32r	.
.	32ff	.
16c` 16e`LL	32r	.
.	32gg	.
16G` 16c`	32r	.
.	32aa	.
16c` 16e`	32r	.
.	32bb	.
16G` 16c`	32r	.
.	32ccc	.
16c` 16e`	32r	.
.	32ddd	.
16G` 16c`JJ	32r	.
.	32eeeJJJ	.
.	(32dddqLLL	.
.	32eeeqJJJ)	.
16GG`LL	8fffz	.
16G` 16d`	.	.
16d` 16f`	8r	.
16G` 16d`	.	.
16d` 16g`	8b	.
16G` 16d`JJ	.	.
=98	=98	=98
8C 8c	8e' 8cc'L	.
8r	(8g	pp
8r	8fJ	.
4r	8eL	.
.	8d	.
8r	8cJ	.
4r	16BLL	.
.	16c	.
.	16B	.
.	16c	.
8r	16d	.
.	16cJJ)	.
=99	=99	=99
*	*^	*
8DD`L	4r	2.cTT	.
8D`	.	.	.
8A`J	8r	.	.
8DD`L	4.f#	.	.
8D`	.	.	.
8A`J	.	.	.
8GGL	4.fnT	4.B	.
8D`	.	.	.
8G`J	.	.	.
.	.	(32eqLLL	.
.	.	32fqJJJ)	.
=100	=100	=100	=100
8CC`L	4r	2.B-TT	.
8C`	.	.	.
8G`J	8r	.	.
8CC`L	4.e	.	.
8C`	.	.	.
8G`J	.	.	.
8FF`L	4.fT	4.A	.
8C`	.	.	.
8F`J	.	.	.
.	.	(32eqLLL	.
.	.	32fqJJJ)	.
=101	=101	=101	=101
!	!	!LO:TX:i:t=cresc.	!
8FF`L	8aT	8fL	<
.	.	(32g#qLL	.
.	.	32aqJJ)	.
8F` 8A`	8ccT	8a	.
.	.	(32bnqLL	.
.	.	32ccqJJ)	.
8A` 8c`J	8ffT	8ccJ	.
.	(32eeqLLL	.	.
.	32ffqJJJ)	.	.
8FF'L	8ff` 8aa`	2.ryy	.
8F` 8A`	[4aaz [4cccz	.	>
8A` 8c`J	.	.	.
8FF`L	8aa] 8cccL]	.	.
8F` 8A`	16gg (16bbL	.	.
.	16ff 16aa	.	.
8A` 8d`J	16ee 16gg	.	.
.	16dd 16ffJJ)	.	]
*	*v	*v	*
=102	=102	=102
8GG`L	16cc` 16ee`LL	p
.	16b (16dd#	.
8G` 8c`	16cc 16ee)	.
.	16dd# (16ff#	.
8c 8eJ	16ee 16gg	.
.	16cc 16eeJJ)	.
8GG`L	16r	.
.	16b (16dd#LL	.
8G` 8c`	16cc 16ee)	.
.	16dd# (16ff#	.
8c` 8e`J	16ee 16gg	.
.	16cc 16eeJJ)	.
8GG`L	16r	.
.	16a# (16cc#LL	.
8G` 8d`	16b 16ddn)	.
.	16cc# 16ee	.
8d` 8f`J	16dd (16ffn	.
.	16b 16ddJJ)	.
=103	=103	=103
8CC 8C	8ccn	.
(8GL	8r	pp
8FJ	8r	.
8EL	4r	.
8D	.	.
8CJ)	8r	.
(16BBLL	4r	.
16C	.	.
16BB	.	.
16C	.	.
16D	8r	.
16CJJ)	.	.
=104	=104	=104
2.CTT	8r	.
.	8f#`L	.
.	8a`J	.
.	8dd`L	.
.	8ff#`	.
.	8aa`J	.
(32BBqLLL	.	.
32CqJJJ	.	.
4.BB)	4.ggT 4.ddd	.
.	(32ccc#qLLL	.
.	32dddqJJJ)	.
=105	=105	=105
2.BB-TT	8r	.
.	8e`L	.
.	8g`J	.
.	8cc`L	.
.	8ee`	.
.	8gg`J	.
(32AAqLL	.	.
32BB-qJJ	.	.
4.AA)	4.ffT 4.ccc	.
.	(32bbqLLL	.
.	32cccqJJJ)	.
=106	=106	=106
*^	*	*
!	!	!LO:TX:i:t=cresc.	!
8FFL	4.FF	16aa` 16ccc`LK	<
.	.	8aa 8fff	.
!LO:TX:i:t=legato	!	!	!
8AA	.	.	.
.	.	8aa 8fff	.
8CJ	.	.	.
.	.	[16aa [16fffJk	.
8FL	[4.F	16aa] 16fffLK]	.
.	.	8aa 8fff	.
8A	.	.	.
.	.	8aa 8fff	.
8c#J	.	.	.
.	.	[16aa [16fffJk	f
8dL	4.F]	16aa] 16fffLK]	.
.	.	8aa 8fff	.
8e	.	.	.
.	.	8gg 8eee	.
8fJ	.	.	.
.	.	16ff 16dddJk	.
*v	*v	*	*
=107	=107	=107
4G 4g	16ee` 16ccc`LL	.
.	16dd# (16ff#	.
.	16ee 16gg)	.
.	16f# (16dd#	.
8r	16g 16ee	.
.	16e 16ccJJ)	.
*	*clefF4	*
4GG 4G	16r	.
.	16d# (16f#LL	.
.	16e 16g)	.
.	16F# (16d#	.
8r	16G 16e	.
.	16E 16cJJ)	.
4GGG 4GG	16r	.
.	16c# (16eLL	.
.	16dn 16fn)	.
.	16E (16c#	.
8r	16Fn 16d	.
.	16D 16BJJ)	.
=108	=108	=108
2.CCTT	16E (16cLL	p
.	16G	.
.	16E	.
.	16G	.
.	16E	.
.	16GJJ	.
.	16ELL	.
.	16G	.
.	16E	.
.	16G	.
.	16E	.
.	16GJJ	.
(32BBBqLLL	.	.
32CCqJJJ	.	.
[4EE)	16ELL	.
.	16G	.
.	16E	.
.	16G	.
16.EELL]	16E	.
.	16GJJ)	.
32CCJJk	.	.
=109	=109	=109
*	*^	*
[2.GGG	(8BL	16FLL	.
.	.	16G	.
.	8d	16F	.
.	.	16G	.
.	[8fJ	16F	.
.	.	16GJJ	.
.	8fL]	16FLL	.
.	.	16G	.
.	8e	16F	.
.	.	16G	.
.	8dJ	16F	.
.	.	16GJJ	.
4.GGG]	8cL	16FLL	.
.	.	16G	.
.	8B	16F	.
.	.	16G	.
.	8dJ)	16F	.
.	.	16GJJ	.
*	*v	*v	*
=110	=110	=110
4.CCTT	16E (16cLL	.
.	16G	.
.	16E	.
.	16G	.
.	16E	.
.	16GJJ	.
(32BBBqLLL	.	.
32CCqJJJ)	.	.
4.EEttt	16ELL	.
.	16G	.
.	16E	.
.	16G	.
.	16E	.
.	16GJJ	.
(32DDqLLL	.	.
32EEqJJJ	.	.
[4GG)	16ELL	.
.	16G	.
.	16E	.
.	16G	.
(32GGLLL]	16E	.
64FFL	.	.
64EE	.	.
64DD	16GJJ)	.
64CC	.	.
64BBB	.	.
64AAAJJJJ)	.	.
=111	=111	=111
*	*^	*
(8AAA-z>	(8BL	16FLL	.
.	.	16G	.
[4GGG)	8d	16F	.
.	.	16G	.
.	[8fJ	16F	.
.	.	16GJJ	.
2.GGG]	8fL]	16FLL	.
.	.	16G	.
.	8e	16F	.
.	.	16G	.
.	8dJ	16F	.
.	.	16GJJ	.
.	8cL	16FLL	.
.	.	16G	.
.	8B	16F	.
.	.	16G	.
.	8dJ)	16F	.
.	.	16GJJ	.
=112	=112	=112	=112
8CCL	8c	16ELL	.
.	.	16G	.
[8GGJ	4ryy	16E	.
.	.	16G	.
(32GGLLL]	.	16E	.
64FFL	.	.	.
64EE	.	.	.
64DD	.	16GJJ	.
64CC	.	.	.
64BBB	.	.	.
64AAAJJJJ)	.	.	.
8AAA-z	8B	16FLL	.
.	.	16G	.
[4GGG	[4fz	16F	.
.	.	16G	.
.	.	16F	.
.	.	16GJJ	.
4.GGG]	8fL]	16FLL	.
.	.	16G	.
.	8d	16F	.
.	.	16G	.
.	8BJ	16F	.
.	.	16GJJ	.
=113	=113	=113	=113
8CCL	(8c	16ELL	.
.	.	16G	.
[8GGJ	4ryy	16E	.
.	.	16G	.
(32GGLLL]	.	16E	.
64FFL	.	.	.
64EE	.	.	.
64DD	.	16GJJ	.
64CC	.	.	.
64BBB	.	.	.
64AAAJJJJ)	.	.	.
8AAA-z	8B	16FLL	.
.	.	16G	.
[4GGG	[4fz	16F	.
.	.	16G	.
.	.	16F	.
.	.	16GJJ	.
4.GGG]	8fL]	16FLL	.
.	.	16G	.
.	16eL	16F	.
.	16d	16G	.
.	16c	16F	.
.	16BJJ)	16GJJ	.
=114	=114	=114	=114
*^	*	*	*
8r	[2.CC	[2.d	16r	.
.	.	.	8FL	.
(8GGL	.	.	.	.
.	.	.	8F	.
8AA-J	.	.	.	.
.	.	.	[16FJk	>
!	!	!	!LO:TX:i:t=decresc.	!
8AAnL	.	.	16FLK]	.
.	.	.	8F	.
8GG#	.	.	.	.
.	.	.	8F	.
8AAJ	.	.	.	.
.	.	.	[16FJk	.
8BB-L	4.CC]	8dL]	16FLK]	.
.	.	.	8F	.
8AA	.	8d	.	.
.	.	.	8F	.
8BB-J	.	8dJ	.	.
.	.	.	[16FJk	.
=115	=115	=115	=115	=115
8BBnL	[4.CC	(4.d	16FLK]	p
.	.	.	8F	.
8GGn	.	.	.	.
.	.	.	8F	.
16AAL	.	.	.	.
16BBJJ	.	.	16FJk	.
4C)	4CC]	4c)	4E	.
8r	8r	8r	8r	.
4r	4r	4r	4r	.
8r	8r	8r	8r	.
*	*	*v	*v	*
*	*	*clefG2	*
=116	=116	=116	=116
*	*	*^	*
(8BBL	[4.CC	4.d ((4.f	16r	pp
.	.	.	8GL	.
8GGJ	.	.	.	.
.	.	.	8G	.
16AALL	.	.	.	.
16BBJJ	.	.	[16GJk	.
4C)	4CC]	4c 4e))	4G]	.
8r	8r	8r	8r	.
4r	4r	4r	4r	.
8r	8r	8r	8r	.
=117	=117	=117	=117	=117
8BBL	[2.CC	4.f (4.a	16rA	.
!	!	!	!LO:TX:i:t=cresc.	!
.	.	.	8GL	.
8GGJ	.	.	.	.
.	.	.	8G	.
16AALL	.	.	.	.
16BBJJ	.	.	[16GJk	.
8CL	.	4.e 4.g	16GLK]	.
.	.	.	8G	.
8GGJ	.	.	.	.
.	.	.	8G	.
16BBLL	.	.	.	.
16CJJ	.	.	[16GJk	.
8DL	4.CC]	4.B 4.f)	16G]LK	.
.	.	.	8G	.
8GGJ	.	.	.	.
.	.	.	8G	.
16C#LL	.	.	.	.
16DJJ	.	.	16GJk	.
*	*	*v	*v	*
=118	=118	=118	=118
(4.D	[4.CC	[4.G 4.B (>(4.f	sf
4C)	4CC]	16G] 16c 16eLL))	p
.	.	(16B	.
.	.	16c)	.
.	.	(16d#	.
8r	8r	16e)	.
.	.	(<16f#JJ	.
4r	4r	16gLL)	.
.	.	(16b	.
.	.	16cc)	.
.	.	(16dd#	.
8r	8r	16ee)	.
.	.	16gg'JJ	.
*v	*v	*	*
*clefG2	*	*
=119	=119	=119
4.g/ (>(4.dd/	4.ff (<(4.bb	pp
4c 4cc))	4ee 4ccc))	.
8r	8r	.
4r	4r	.
8r	8r	.
==	==	==
*-	*-	*-
!!!RDF**kern: > = above
!!!RDF**kern: < = below
!!!ENC: Craig Stuart Sapp
!!!END: 2008/11/10/
!!!EED: Craig Stuart Sapp
!!!EEV: 2018/06/24/
